!!!COM:      Bach, Johann Sebastian
!!!CDT:      1685/03/31/-1750/07/28/
!!!OPR@@GER: Das wohltemperirte Clavier
!!!OVM@@GER: Band II
!!!OPR@ENG:  Well-Tempered Clavier
!!!OVM@ENG:  Book II
!!!OTL:      Prelude
!!!OKY:      D minor
!!!ONM:      no. 6
!!!SCT:      BWV 875
!!!OMV:      1
**kern	**kern	**kern
*M3/4	*staff:13	*staff:14
*MM94	*MM94	*MM94
*	*clefF4	*clefG2
*	*k[b-]	*k[b-]
*	*d:	*d:
*	*M3/4	*M3/4
=1-	=1-	=1-
2.ryy	4DM	8dd
.	.	16cc
.	.	16b-
.	4DD	16a
.	.	16g
.	.	16f
.	.	16e
.	4r	16d
.	.	16f
.	.	16e
.	.	16d
=2	=2	=2
2.ryy	8r	16b-
.	.	16g
.	8DD	16d
.	.	16g
.	8GG	16b-
.	.	16g
.	8BB-	16d
.	.	16g
.	4D	16b-
.	.	16g
.	.	16d
.	.	16g
=3	=3	=3
2.ryy	8r	16a
.	.	16g
.	8DD	16d
.	.	16g
.	8FF	16a
.	.	16f
.	8AA	16d
.	.	16f
.	4D	16a
.	.	16f
.	.	16d
.	.	16f
=4	=4	=4
2.ryy	8r	16g
.	.	16e
.	8B-	16d
.	.	16e
.	8E	16g
.	.	16e
.	8G	16c#
.	.	16e
.	8C#	16g
.	.	16e
.	8A	16c#
.	.	16e
=5	=5	=5
*	*staff:11	*staff:12
*clefF4	*	*
*k[b-]	*	*
4D	16r	4f
.	16d	.
.	16cn	.
.	16B-	.
16r	16A	4r
16ryy	16G	.
8ryy	16F	.
.	16E	.
4ryy	16D	4r
.	16F	.
.	16E	.
.	16D	.
=6	=6	=6
2.ryy	16B-	8r
.	16G	.
.	16D	8d
.	16G	.
.	16B-	8g
.	16G	.
.	16D	8b-
.	16G	.
.	16B-	4dd
.	16G	.
.	16D	.
.	16G	.
=7	=7	=7
2.ryy	16A	8r
.	16G	.
.	16D	8d
.	16G	.
.	16A	8f
.	16F	.
.	16D	8a
.	16F	.
.	16A	4dd
.	16F	.
.	16D	.
.	16F	.
=8	=8	=8
2.ryy	16G	8r
.	16E	.
.	16D	8g
.	16E	.
.	16G	8cc#
.	16E	.
.	16C#	8ee
.	16E	.
.	16G	8cc#
.	16E	.
.	16C#	8a
.	16E	.
=9	=9	=9
2.ryy	16F	8dd
.	16D	.
.	16E	16ccn
.	16F	16b-
.	16G	16a
.	16A	16g
.	16Bn	16f
.	16c#	16e
.	16d	8f
.	16cn	.
.	16Bn	[8a
.	16A	.
=10	=10	=10
*	*staff:9	*staff:10
2.ryy	16Bn	16a]
.	16c	16g
.	16B	16a
.	16A	16bn
.	16G	16cc
.	16F	16dd
.	16E	16ee
.	16D	16ff
.	8E	16gg
.	.	16ff
.	8G	16ee
.	.	16dd
=11	=11	=11
2.ryy	8C	16ee
.	.	16cc
.	16D	16b-X
.	16E	16a
.	16F	16g
.	16G	16f
.	16A	16e
.	16B-	16d
.	16c	8e
.	16B-	.
.	16A	[8g
.	16G	.
=12	=12	=12
2.ryy	16A	16g]
.	16B-	16f
.	16A	16g
.	16G	16a
.	16F	16b-
.	16E-	16cc
.	16D	16dd
.	16C	16ee-
.	8D	16ff
.	.	16ee-
.	8F	16dd
.	.	16cc
=13	=13	=13
2.ryy	8BB-	16dd
.	.	16ff
.	16B-	16dd
.	16c	16cc
.	8d	16b-
.	.	16dd
.	8f	16b-
.	.	16a
.	8B-	16g
.	.	16b-
.	8d	16g
.	.	16f
=14	=14	=14
2.ryy	16G	8e
.	16B-	.
.	16G	16ee
.	16F	16ff
.	16E	8gg
.	16G	.
.	16E	8bb-
.	16D	.
.	16C#	8ee
.	16E	.
.	16C#	8gg
.	16BBn	.
=15	=15	=15
*	*staff:7	*staff:8
2.ryy	8AA	16cc#
.	.	16gg
.	16A	16cc#
.	16Bn	16bn
.	8c#	16a
.	.	16ee
.	8e	16a
.	.	16g
.	8A	16f
.	.	16cc#X
.	8G	16f
.	.	16e
=16	=16	=16
2.ryy	16F	8d
.	16d	.
.	16F	16dd
.	16E	16ee
.	16D	8ff
.	16A	.
.	16D	8aa
.	16C	.
.	16BB-	8dd
.	16F	.
.	16BB-	8cc
.	16AA	.
=17	=17	=17
2.ryy	8GG	16b-
.	.	16gg
.	16G	16b-
.	16A	16a
.	8B-	16g
.	.	16b-
.	8d	16g
.	.	16f
.	8G	16e-
.	.	16b-
.	8B-	16e-
.	.	16d
=18	=18	=18
2.ryy	8A	16c#
.	.	16a
.	8e	16c#
.	.	16Bn
.	8A	16c#
.	.	16a
.	8e	16c#
.	.	16a
.	8A	16c#
.	.	16a
.	8e	16c#
.	.	16a
=19	=19	=19
*	*staff:5	*staff:6
2.ryy	8G	16c#
.	.	16a
.	8e	16c#
.	.	16Bn
.	8G	16c#
.	.	16a
.	8e	16c#
.	.	16a
.	8G	16c#
.	.	16a
.	8e	16c#
.	.	16a
=20	=20	=20
2.ryy	8F	16d
.	.	16a
.	8f	16d
.	.	16c#
.	8F	16d
.	.	16a
.	8f	16d
.	.	16a
.	8F	16d
.	.	16a
.	8f	16d
.	.	16a
*	*clefG2	*
=21	=21	=21
2.ryy	8c#	16e
.	.	16a
.	8g	16e
.	.	16d
.	8c#	16e
.	.	16a
.	8g	16e
.	.	16a
.	8c#	16e
.	.	16a
.	8g	16e
.	.	16a
=22	=22	=22
2.ryy	8d	32f
.	.	32a
.	.	32bn
.	.	32cc#
.	8f	16dd
.	.	16a
.	8d	16f
.	.	16a
.	8f	16dd
.	.	16a
.	8d	16f
.	.	16a
.	8f	16dd
.	.	16a
=23	=23	=23
*	*staff:3	*staff:4
2.ryy	8c	16f#
.	.	16dd
.	8a	16f#
.	.	16e
.	8c	16f#
.	.	16dd
.	8a	16f#
.	.	16dd
.	8c	16f#
.	.	16dd
.	8a	16f#
.	.	16dd
=24	=24	=24
2.ryy	8Bn	32g
.	.	32a
.	.	32bn
.	.	32cc
.	8g	16dd
.	.	16b
.	8B	16g
.	.	16b
.	8g	16dd
.	.	16b
.	8B	16g
.	.	16b
.	8g	16dd
.	.	16b
=25	=25	=25
2.ryy	8e	16g#
.	.	16dd
.	8bn	16g#
.	.	16f#
.	8e	16g#
.	.	16dd
.	8b	16g#
.	.	16dd
.	8e	16g#
.	.	16dd
.	8b	16g#
.	.	16dd
*	*clefF4	*
=26	=26	=26
4A	16r	4cc
.	16a	.
.	16gn	.
.	16fn	.
16r	16e	4r
16ryy	16d	.
8ryy	16c	.
.	16Bn	.
4ryy	16A	4r
.	16c	.
.	16B	.
.	16A	.
=27	=27	=27
*	*staff:1	*staff:2
2.ryy	16f	8r
.	16d	.
.	16A	8a
.	16d	.
.	16f	8dd
.	16d	.
.	16A	8ff
.	16d	.
.	16f	4aa
.	16d	.
.	16A	.
.	16d	.
=28	=28	=28
2.ryy	16e	8r
.	16d	.
.	16A	8a
.	16d	.
.	16e	8cc
.	16c	.
.	16A	8ee
.	16c	.
.	16e	4aa
.	16c	.
.	16A	.
.	16c	.
=29	=29	=29
2.ryy	16d	8r
.	16Bn	.
.	16A	8dd
.	16B	.
.	16d	8gg#
.	16B	.
.	16G#	8bbn
.	16B	.
.	16d	8gg#
.	16B	.
.	16G#	8ee
.	16B	.
=30	=30	=30
2.ryy	8c	8aa
.	8AA	16ggn
.	.	16ff
.	8C	16ee
.	.	16dd
.	8E	16cc
.	.	16bn
.	8A	16a
.	.	16cc
.	8c	16b
.	.	16a
=31	=31	=31
2.ryy	8d	16ff
.	.	16dd
.	8f	16a
.	.	16dd
.	8A	16ff
.	.	16dd
.	8d	16a
.	.	16dd
.	8D	16ff
.	.	16dd
.	8Bn	16a
.	.	16dd
=32	=32	=32
*	*staff:13	*staff:14
2.ryy	8c	16ee
.	.	16dd
.	8e	16a
.	.	16dd
.	8A	16ee
.	.	16cc
.	8c	16a
.	.	16cc
.	8C	16ee
.	.	16cc
.	8A	16a
.	.	16cc
=33	=33	=33
2.ryy	8Bn	16dd
.	.	16bn
.	8d	16a
.	.	16b
.	8G#	16dd
.	.	16b
.	8B	16g#
.	.	16b
.	8e	16dd
.	.	16b
.	8E	16g#
.	.	16b
=34	=34	=34
2.ryy	16A	[2.cc
.	16a	.
.	16gn	.
.	16f	.
.	16e	.
.	16d	.
.	16c	.
.	16Bn	.
.	16A	.
.	16c	.
.	16E	.
.	16G	.
=35	=35	=35
2.ryy	8F#	16cc]
.	.	16ee-
.	8a	16dd
.	.	16cc
.	8cc	16ff#
.	.	16ee-X
.	8a	16dd
.	.	16cc
.	8f#X	16aa
.	.	16ee-X
.	8d	16dd
.	.	16cc
=36	=36	=36
*	*staff:11	*staff:12
2.ryy	8g	16b-
.	.	16gg
.	8G	16ffn
.	.	16ee-
.	8B-	16dd
.	.	16cc
.	8d	16b-
.	.	16a
.	8g	16cc
.	.	16b-
.	8f	16a
.	.	16g
=37	=37	=37
2.ryy	16en	8cc
.	16d-	.
.	16c	8een
.	16B-	.
.	16f	8bn
.	16d-X	.
.	16c	8ff
.	16B-X	.
.	16g	8b-
.	16d-X	.
.	16c	[8gg
.	16B-	.
=38	=38	=38
2.ryy	16A	16gg]
.	16f	16ddn
.	16e	16cc
.	16d	16b-
.	16c	16a
.	16B-	16gg
.	16A	16ff
.	16G	16ee
.	16B-	16dd
.	16A	16bb-
.	16G	16ee
.	16F	16dd
=39	=39	=39
2.ryy	16E	16cc#
.	16g	16b-X
.	16f	16a
.	16e	16g
.	16d	16dd
.	16g	16b-
.	16f	16a
.	16e	16g
.	16c#	16ee
.	16g	16b-
.	16f	16a
.	16e	16g
=40	=40	=40
*	*staff:9	*staff:10
2.ryy	16d	8f
.	16e-	.
.	16d	8f#
.	16c	.
.	16B-	8g
.	16c	.
.	16B-	8a
.	16A	.
.	16G	8b-
.	16A	.
.	16G	8bn
.	16F	.
=41	=41	=41
2.ryy	16E	8cc
.	16B-	.
.	16A	8cc#
.	16G	.
.	16F	8dd
.	16G	.
.	16F	8ee
.	16E	.
.	16D	8ff
.	16E-	.
.	16D	8ff#
.	16C	.
=42	=42	=42
2.ryy	8BB-	16gg
.	.	16dd
.	8GG	16bb-
.	.	16aa
.	8BB-	16gg
.	.	16ffn
.	8D	16ee
.	.	16dd
.	[4G	16cc#
.	.	16dd
.	.	16ee
.	.	16cc#
=43	=43	=43
2.ryy	16G]	8a
.	16G	.
.	16AA	8e
.	16GG	.
.	16AA	8a
.	16G	.
.	16AA	8cc#
.	16G	.
.	16AA	[4ee
.	16G	.
.	16AA	.
.	16G	.
=44	=44	=44
*	*staff:7	*staff:8
2.ryy	16AA	16ee]
.	16F	16a
.	16AA	16f
.	16GG	16a
.	16AA	16dd
.	16F	16a
.	16AA	16f
.	16F	16a
.	16AA	[4dd
.	16F	.
.	16AA	.
.	16F	.
=45	=45	=45
2.ryy	16AA	16dd]
.	16E	16g
.	16AA	16e
.	16GG	16g
.	16AA	16cc
.	16E	16g
.	16AA	16e
.	16E	16g
.	16AA	[4cc
.	16E	.
.	16AA	.
.	16E	.
=46	=46	=46
2.ryy	16AA	16cc]
.	16D	16f
.	16F	16d
.	16D	16f
.	16AA	16b-
.	16D	16f
.	16F	16d
.	16A	16f
.	16GG	16b-
.	16E	16g
.	16G	16e
.	16B-	16g
=47	=47	=47
2.ryy	8G	16c#
.	.	16a
.	8C#	16b-
.	.	16a
.	8E	16c#
.	.	16a
.	8GG	16b-
.	.	16a
.	16r	8c#
.	16BB-	.
.	16AA	[8e
.	16GG	.
=48	=48	=48
2.ryy	16FF	16e]
.	16F	16a
.	16E	16b-
.	16F	16a
.	16FF	16d
.	16F	16a
.	16E	16b-
.	16F	16a
.	16FF	8d
.	16F	.
.	16E	[8f
.	16D	.
=49	=49	=49
*	*staff:5	*staff:6
2.ryy	8C#	16f]
.	.	16g
.	8EE	16a
.	.	16g
.	8GG	16e
.	.	16g
.	8CC#X	16a
.	.	16g
.	16r	8A
.	16C#X	.
.	16BBn	[8g
.	16AA	.
=50	=50	=50
2.ryy	8D	16g]
.	.	16B-
.	8DD	16A
.	.	16B-
.	8FF	16A
.	.	16e
.	8AA	16d
.	.	16c#
.	[4D	16d
.	.	16g
.	.	16f
.	.	16e
=51	=51	=51
2.ryy	16D]	16f
.	16G	16B-
.	16A	16c
.	16B-	16d
.	16C	16e-
.	16F#	16A
.	16G	16B-
.	16A	16c
.	16BB-	16d
.	16G	16B-
.	16A	16c
.	16B-	16d
=52	=52	=52
2.ryy	16C	16e-
.	16F#	16A
.	16G	16B-
.	16A	16c
.	16BB-	16d
.	16G	16B-
.	16A	16c
.	16B-	16d
.	16AA	16c
.	16D	16F#
.	16En	16G
.	16F#X	16A
=53	=53	=53
*	*staff:3	*staff:4
2.ryy	16GG	16B-
.	16D	16r
.	16E	8r
.	16F#	.
.	16G	16r
.	16r	16A
.	8r	16B-
.	.	16c
.	4r	16d
.	.	16B-
.	.	16g
.	.	16d
=54	=54	=54
2.ryy	4r	16b-
.	.	16g
.	.	16f
.	.	16e-
.	16r	16d
.	16c	16r
.	16B-	8r
.	16A	.
.	16G	4r
.	16B-	.
.	16En	.
.	16G	.
=55	=55	=55
2.ryy	4C#	16r
.	.	16b-
.	.	16a
.	.	16g
.	8r	16ee
.	.	16dd
.	8AA	16cc#
.	.	16bn
.	8BBn	16a
.	.	16g
.	8C#X	16f
.	.	16e
=56	=56	=56
2.ryy	8D	16f
.	.	16d
.	8E	16g
.	.	16d
.	8F	16a
.	.	16d
.	8G	16b-
.	.	16d
.	8A	16r
.	.	16d
.	8AA	16e
.	.	16c#
=57	=57	=57
*	*staff:1	*staff:2
2.ryy	8D	16d
.	.	16cn
.	8A	16F#
.	.	16c
.	8D	16d
.	.	16c
.	8A	16F#
.	.	16c
.	8D	16d
.	.	16c
.	8A	16F#
.	.	16c
=58	=58	=58
2.ryy	8D	16B-
.	.	16d
.	8G	16B-
.	.	16F#
.	8D	16B-
.	.	16d
.	8G	16B-
.	.	16F#
.	8D	16B-
.	.	16d
.	8G	16B-
.	.	16E
=59	=59	=59
2.ryy	8D	16Fn
.	.	16d
.	8A	16F
.	.	16d
.	8D	16F
.	.	16d
.	8A	16F
.	.	16d
.	8D	16F
.	.	16d
.	8A	16F
.	.	16d
=60	=60	=60
2.ryy	8D	16G
.	.	16c#
.	8B-	16G
.	.	16E
.	8D	16G
.	.	16c#
.	8B-	16G
.	.	16E
.	8D	16G
.	.	16c#
.	8B-	16G
.	.	16E
=61	=61	=61
2.ryy	2.D 2.A	2.F#;y 2.d;
==	==	==
*-	*-	*-
!!!AFR:  prelude
!!!EFL:  59/96
!!!END:  1994/02/02/
!!!VID:  1787353149 Bach, BWV 875-01
!!!AST:  Baroque
!!!OCY:  Deutschland
!!!ODT:  1742///
!!!PDT:  1801///
!!!EED:  Walter Hewlett
!!!ENC:  Walter Hewlett
!!!YOR:  Bach Gesellschaft Edition xiv
!!!AFT:  enhanced SCORE
!!!RDT:  2011/10/07/ by Andreas Kornstaedt using massScr2hmd
!!!SCA1: Thematisch-systematisches Verzeichnis der musikalischen Werke 
!!!SCA2: Johann Sebastian Bach: Bach-Werke-Verzeichnis (Schmieder)
!!!YEC1: Copyright 1994, 2000 Center for Computer Assisted Research 
!!!YEC2: in the Humanities
!!!YEM1: Rights to all derivative editions reserved.
!!!YEM2: Refer to licensing agreement for further details.
!!!YEN:  United States of America
!!!ref:  @{OTL}, @{SCT}
!!muse2ps: T^@{OTL} @{ONM} in @{OKY}^C^J.S. Bach\n@{SCT}-@{OMV}^
!!muse2ps: u^@{OPR@ENG}, @{OVM@ENG}^j
